packages/elvis-assets-icons/icons/svg/src/notification-bold.svg

<svg width="24" height="24" viewBox="0 0 24 24" fill="none" xmlns="http://www.w3.org/2000/svg">
<path fill-rule="evenodd" clip-rule="evenodd" d="M11.7309 0C11.4431 0 11.1742 0.108629 10.98 0.319284C10.7877 0.527887 10.6926 0.809638 10.6926 1.11905V2.68372C6.62941 3.19324 3.44878 6.64923 3.44878 10.7857C3.44878 13.5693 3.13775 15.3948 2.83333 16.5147C2.68114 17.0745 2.53061 17.458 2.42137 17.6969C2.36675 17.8164 2.32241 17.8998 2.29331 17.951C2.28282 17.9695 2.2743 17.9838 2.26798 17.9941C2.12485 18.1501 2.06029 18.3313 2.02999 18.4956C1.99993 18.6587 1.99997 18.8292 2 18.963V18.963L2.00001 19.1241L2.10609 19.2287L2.12988 19.2523C2.30525 19.4262 2.59568 19.7143 3.03829 19.7143H20.4235C20.6726 19.7143 20.9191 19.6534 21.1142 19.5188C21.3013 19.3896 21.4399 19.1902 21.4595 18.9417C21.5742 18.5375 21.434 18.1457 21.1803 17.8843C21.1759 17.8784 21.1693 17.8689 21.1605 17.8557C21.1372 17.8202 21.099 17.7572 21.0506 17.6599C20.9539 17.4651 20.8169 17.1335 20.6772 16.6113C20.3975 15.5658 20.1096 13.7646 20.1096 10.7857C20.1096 6.67669 16.8932 3.24685 12.8658 2.69619V1.11905C12.8658 0.416996 12.287 0 11.7309 0ZM14.0402 20.5345C13.496 20.4003 12.8947 20.664 12.7357 21.2552C12.5827 21.6949 12.2266 21.9524 11.8275 21.9524C11.4284 21.9524 11.0723 21.6949 10.9193 21.2552C10.7603 20.664 10.159 20.4003 9.61478 20.5345C9.00431 20.685 8.7311 21.2835 8.86832 21.8247C9.20421 23.1495 10.5276 24 11.8275 24C13.1486 24 14.3452 23.1338 14.7789 21.851L14.7833 21.838L14.7867 21.8247C14.9239 21.2835 14.6507 20.685 14.0402 20.5345ZM5.62193 10.7857C5.62193 7.4487 8.27116 4.66665 11.7309 4.66665C15.1976 4.66665 17.9365 7.45571 17.9365 10.7857C17.9365 14.2255 18.3084 16.3003 18.7424 17.5714H4.78753C5.16804 16.3052 5.62193 14.1728 5.62193 10.7857Z" fill="black"/>
</svg>

<svg width="24" height="24" fill="none" xmlns="http://www.w3.org/2000/svg"><path fill-rule="evenodd" clip-rule="evenodd" d="M11.73 0c-.287 0-.556.109-.75.32-.192.208-.287.49-.287.799v1.565c-4.064.51-7.244 3.965-7.244 8.102 0 2.783-.311 4.609-.616 5.729-.152.56-.302.943-.412 1.182a3.273 3.273 0 01-.153.297.99.99 0 00-.238.502c-.03.163-.03.333-.03.467v.161l.106.105.024.023c.175.174.466.462.908.462h17.386c.249 0 .495-.06.69-.195a.774.774 0 00.345-.577 1.088 1.088 0 00-.279-1.058 1.914 1.914 0 01-.13-.224 5.69 5.69 0 01-.373-1.049c-.28-1.045-.567-2.846-.567-5.825 0-4.11-3.217-7.54-7.244-8.09V1.12C12.866.417 12.287 0 11.73 0zm2.31 20.535c-.544-.135-1.145.129-1.304.72-.153.44-.51.697-.909.697s-.755-.257-.908-.697c-.159-.591-.76-.855-1.304-.72-.61.15-.884.748-.747 1.29.336 1.325 1.66 2.175 2.96 2.175 1.32 0 2.517-.866 2.95-2.149l.005-.013.004-.013c.137-.541-.136-1.14-.747-1.29zm-8.418-9.75c0-3.336 2.65-6.118 6.109-6.118 3.467 0 6.205 2.789 6.205 6.119 0 3.44.372 5.514.806 6.785H4.788c.38-1.266.834-3.398.834-6.785z" fill="#000"/></svg>
